assets/icons/utility/ad_set.svg

<?xml version="1.0"?><svg xmlns="http://www.w3.org/2000/svg" width="52" height="52" viewBox="0 0 52 52"><g fill="#fff"><path d="m22.5 5.1h-17c-0.8 0-1.5 0.7-1.5 1.5v15.9c0 0.8 0.7 1.5 1.5 1.5h17c0.8 0 1.5-0.7 1.5-1.5v-15.9c0-0.8-0.7-1.5-1.5-1.5z m-2.6 8.2h-11.8v-4.1h11.8v4.1z m26.6-8.2h-17c-0.8 0-1.5 0.7-1.5 1.5v15.9c0 0.8 0.7 1.5 1.5 1.5h17c0.8 0 1.5-0.7 1.5-1.5v-15.9c0-0.8-0.7-1.5-1.5-1.5z m-2.6 8.2h-11.8v-4.1h11.8v4.1z"></path></g><g fill="#fff"><path d="m22.5 28h-17c-0.8 0-1.5 0.7-1.5 1.5v15.9c0 0.8 0.7 1.5 1.5 1.5h17c0.8 0 1.5-0.7 1.5-1.5v-15.9c0-0.8-0.7-1.5-1.5-1.5z m-2.6 8.2h-11.8v-4.1h11.8v4.1z m26.6-8.2h-17c-0.8 0-1.5 0.7-1.5 1.5v15.9c0 0.8 0.7 1.5 1.5 1.5h17c0.8 0 1.5-0.7 1.5-1.5v-15.9c0-0.8-0.7-1.5-1.5-1.5z m-2.6 8.2h-11.8v-4.1h11.8v4.1z"></path></g></svg>

<svg xmlns="http://www.w3.org/2000/svg" x="0px" y="0px"
	 width="52px" height="52px" viewBox="0 0 52 52" enable-background="new 0 0 52 52" xml:space="preserve">
<g>
	<path fill="#FFFFFF" d="M22.5,5.1h-17C4.7,5.1,4,5.8,4,6.6v15.9C4,23.3,4.7,24,5.5,24h17c0.8,0,1.5-0.7,1.5-1.5V6.6
		C24,5.8,23.3,5.1,22.5,5.1z M19.9,13.3H8.1V9.2h11.8V13.3z"/>
	<path fill="#FFFFFF" d="M46.5,5.1h-17c-0.8,0-1.5,0.7-1.5,1.5v15.9c0,0.8,0.7,1.5,1.5,1.5h17c0.8,0,1.5-0.7,1.5-1.5V6.6
		C48,5.8,47.3,5.1,46.5,5.1z M43.9,13.3H32.1V9.2h11.8V13.3z"/>
</g>
<g>
	<path fill="#FFFFFF" d="M22.5,28h-17C4.7,28,4,28.7,4,29.5v15.9c0,0.8,0.7,1.5,1.5,1.5h17c0.8,0,1.5-0.7,1.5-1.5V29.5
		C24,28.7,23.3,28,22.5,28z M19.9,36.2H8.1v-4.1h11.8V36.2z"/>
	<path fill="#FFFFFF" d="M46.5,28h-17c-0.8,0-1.5,0.7-1.5,1.5v15.9c0,0.8,0.7,1.5,1.5,1.5h17c0.8,0,1.5-0.7,1.5-1.5V29.5
		C48,28.7,47.3,28,46.5,28z M43.9,36.2H32.1v-4.1h11.8V36.2z"/>
</g>
</svg>
